X:1
M:4/4
K:D
A3/2d/2 f/2g/2f/2e/2|dF A3/2d/2|cE G3/2B/2|AD F2|G3|:|
e/2f/2|g3/2e/2 fa|d3/2e/2 gf/2g/2|ef ef/2d/2|\
Bc BA/2A/2|
cc/2c/2 dA/2B/2|cc A3/2A/2|FG AA/2c/2|B3/2B/2 AB|A3:|